!!!SOCIAL_FUNCTION:	deer dance songs
!!!PDT:	1932
!!!OTL: No_86_Voices_of_the_People.krn
!!!REG: Southwest
!!!LANG: Non-Tone
!!!LING_GROUP: Yuman-Cochimi
**kern
*staff1
=1-
*clefF4
*k[b-]
*M3/4
2r
8.r
16A\
=2
4A\
12A\L
12c\
12A\J
8.A\L
16G\Jk
=3||
*M2/4
8F\L
8F\J
8F\
16r
16c\
=4||
*M3/4
4A\
12A\L
12G\
12G\J
8.G\L
16F\Jk
=5||
*M2/4
8F\L
8F\J
8F\
16r
16G\
=6||
*M3/4
4A\
12A\L
12G\
12F\J
8.E\L
16G\Jk
=7
4F\
8F\L
8F\J
8F\L
8F\J
=8||
*M2/4
4F\
4r
=9
8A\L
8A\J
8c\L
8A\J
=10
8A\L
8A\J
12A\L
12G\
12A\J
=11
12A\L
12G\
12G\J
8G\L
8G\J
=12||
*M3/4
8G\L
8F\J
4F\
8r
16r
16c\
=13
4A\
12A\L
12G\
12G\J
8.G\L
16F\Jk
=14||
*M2/4
8F\L
8F\J
8F\
16r
16G\
=15||
*M3/4
4A\
12A\L
12G\
12F\J
8.E\L
16G\Jk
=16
4F\
8F\L
8F\J
8F\L
8F\J
=17
4F\
2r
==
*-
